icons/svg/32x32/filter/outline.svg

<svg width="32" height="32" fill="none" xmlns="http://www.w3.org/2000/svg">
  <path fill-rule="evenodd" clip-rule="evenodd" d="M16 3C10 3 3 4 3 6s10 10 10 10v10l6 3V16S29 8 29 6s-7-3-13-3zm0 2c5.113 0 9.051.696 10.609 1.322-1.364 1.718-5.342 5.303-8.858 8.116A2 2 0 0017 16v9.764l-2-1V16a2 2 0 00-.751-1.562c-3.516-2.813-7.494-6.398-8.858-8.116C6.949 5.696 10.887 5 16 5z" fill="#000"/>
</svg>

<svg xmlns="http://www.w3.org/2000/svg" width="32" height="32" viewBox="0 0 32 32">
  <path fill-rule="evenodd" d="M16,3 C10,3 3,4 3,6 C3,8 13,16 13,16 L13,26 L19,29 L19,16 C19,16 29,8 29,6 C29,4 22,3 16,3 M16,5 C21.113,5 25.051,5.696 26.609,6.322 C25.245,8.04 21.267,11.625 17.751,14.438 C17.276,14.818 17,15.393 17,16 L17,25.764 L15,24.764 L15,16 C15,15.393 14.724,14.818 14.249,14.438 C10.733,11.625 6.755,8.04 5.391,6.322 C6.949,5.696 10.887,5 16,5"/>
</svg>
